packages/core/src/svgs/tokens/branded/IDV.svg

<svg width="24" height="24" viewBox="0 0 24 24" fill="none" xmlns="http://www.w3.org/2000/svg">
<path d="M9.27421 7.68176H8.36511V10.2727C7.87278 9.71382 7.22073 9.31957 6.49707 9.1433C5.77342 8.96701 5.0131 9.0172 4.3189 9.28705C3.62469 9.55691 3.03009 10.0334 2.61549 10.6522C2.20088 11.2709 1.98628 12.002 2.00068 12.7467C2.01508 13.4914 2.25781 14.2136 2.69602 14.816C3.13425 15.4182 3.74682 15.8714 4.45095 16.1142C5.15507 16.3569 5.91677 16.3777 6.63306 16.1736C7.34935 15.9694 7.98568 15.5502 8.45602 14.9727L7.96965 14.0955C7.63749 14.6419 7.12384 15.0544 6.51849 15.2606C5.91313 15.4668 5.25456 15.4537 4.65787 15.2236C4.06118 14.9935 3.56432 14.5611 3.25411 14.0018C2.94391 13.4426 2.8401 12.7921 2.96081 12.1641C3.08153 11.5361 3.41909 10.9705 3.91452 10.5661C4.40994 10.1616 5.03172 9.94426 5.67119 9.95178C6.31066 9.95931 6.92715 10.1913 7.41292 10.6072C7.89869 11.0232 8.22285 11.5966 8.32875 12.2273H9.27421V7.68176Z" fill="url(#paint0_linear_364_8686)"/>
<path d="M18.365 16.3182C18.9769 16.318 19.5788 16.1633 20.1152 15.8686C20.6514 15.5739 21.1046 15.1484 21.4328 14.632C21.761 14.1155 21.9536 13.5245 21.9926 12.9138C22.0316 12.3031 21.9159 11.6925 21.6562 11.1383C21.3964 10.5843 21.0011 10.1047 20.5068 9.74405C20.0124 9.3834 19.435 9.15333 18.828 9.07516C18.2211 8.99701 17.6043 9.07327 17.0347 9.2969C16.4651 9.52053 15.9611 9.88429 15.5695 10.3545L16.0831 11.1863C16.4446 10.6354 16.9933 10.2339 17.6277 10.0562C18.2622 9.8785 18.9396 9.93647 19.5346 10.2194C20.1297 10.5024 20.6022 10.9912 20.8648 11.5956C21.1273 12.1999 21.1623 12.8788 20.9631 13.5069C20.7639 14.135 20.3441 14.6698 19.7812 15.0123C19.2183 15.3548 18.5505 15.482 17.901 15.3703C17.2517 15.2585 16.6647 14.9155 16.2486 14.4046C15.8325 13.8937 15.6155 13.2494 15.6377 12.5909L14.9103 11.5454C14.7898 11.9122 14.7284 12.2958 14.7285 12.6818V16.3182H15.6377V15.091C15.9789 15.4777 16.3987 15.7871 16.869 15.9987C17.3392 16.2103 17.8492 16.3193 18.365 16.3182Z" fill="url(#paint1_linear_364_8686)"/>
<path d="M2.02837 12.2273C1.92994 13.0107 2.08918 13.8049 2.48205 14.4898C2.8749 15.1748 3.48002 15.7132 4.20596 16.0238C4.9319 16.3344 5.73922 16.4003 6.50592 16.2115C7.27262 16.0227 7.95702 15.5895 8.45573 14.9773L7.96936 14.0955C7.64085 14.639 7.13295 15.0509 6.53327 15.26C5.93358 15.4691 5.27971 15.4624 4.68445 15.241C4.08919 15.0196 3.58986 14.5974 3.27259 14.0472C2.95533 13.4971 2.84002 12.8534 2.94657 12.2273H2.02837Z" fill="#14B4FE"/>
<path fill-rule="evenodd" clip-rule="evenodd" d="M12.0012 16.3182C12.9656 16.3182 13.8906 15.9351 14.5725 15.2531C15.2544 14.5712 15.6376 13.6463 15.6376 12.6818C15.6376 11.7174 15.2544 10.7925 14.5725 10.1105C13.8906 9.42853 12.9656 9.04541 12.0012 9.04541C11.0367 9.04541 10.1118 9.42853 9.42982 10.1105C8.74786 10.7925 8.36475 11.7174 8.36475 12.6818C8.36475 13.6463 8.74786 14.5712 9.42982 15.2531C10.1118 15.9351 11.0367 16.3182 12.0012 16.3182ZM12.0012 15.4092C12.7245 15.4092 13.4182 15.1218 13.9297 14.6103C14.4411 14.0989 14.7284 13.4051 14.7284 12.6818C14.7284 11.9585 14.4411 11.2648 13.9297 10.7534C13.4182 10.2418 12.7245 9.95451 12.0012 9.95451C11.2778 9.95451 10.5842 10.2418 10.0726 10.7534C9.56119 11.2648 9.27385 11.9585 9.27385 12.6818C9.27385 13.4051 9.56119 14.0989 10.0726 14.6103C10.5842 15.1218 11.2778 15.4092 12.0012 15.4092Z" fill="#1EBCFF"/>
<defs>
<linearGradient id="paint0_linear_364_8686" x1="16.3763" y1="9.72853" x2="17.096" y2="13.4011" gradientUnits="userSpaceOnUse">
<stop stop-color="#14B4FE"/>
<stop offset="0.66" stop-color="#1A2C58"/>
</linearGradient>
<linearGradient id="paint1_linear_364_8686" x1="-1.12593" y1="15.2387" x2="2.76385" y2="8.48146" gradientUnits="userSpaceOnUse">
<stop stop-color="#122543"/>
<stop offset="0.45" stop-color="#173C66"/>
<stop offset="1" stop-color="#5FC0F0"/>
</linearGradient>
</defs>
</svg>

<svg xmlns="http://www.w3.org/2000/svg" width="24" height="24" fill="none" viewBox="0 0 24 24">
    <path fill="url(#IDV__a)" d="M9.274 7.682h-.909v2.59a3.636 3.636 0 1 0 .091 4.7l-.486-.876a2.728 2.728 0 1 1 .359-1.869h.945z"/>
    <path fill="url(#IDV__b)" d="M18.365 16.318a3.637 3.637 0 1 0-2.795-5.964l.513.832a2.728 2.728 0 1 1-.445 1.405l-.728-1.046c-.12.367-.182.75-.181 1.137v3.636h.909v-1.227a3.63 3.63 0 0 0 2.727 1.227"/>
    <path fill="#14B4FE" d="M2.028 12.227a3.636 3.636 0 0 0 6.428 2.75l-.487-.882a2.727 2.727 0 0 1-5.022-1.868z"/>
    <path fill="#1EBCFF" fill-rule="evenodd" d="M12.001 16.318a3.636 3.636 0 1 0 0-7.272 3.636 3.636 0 0 0 0 7.272m0-.909a2.727 2.727 0 1 0 0-5.455 2.727 2.727 0 0 0 0 5.455" clip-rule="evenodd"/>
    <defs>
        <linearGradient id="IDV__a" x1="16.376" x2="17.096" y1="9.729" y2="13.401" gradientUnits="userSpaceOnUse">
            <stop stop-color="#14B4FE"/>
            <stop offset=".66" stop-color="#1A2C58"/>
        </linearGradient>
        <linearGradient id="IDV__b" x1="-1.126" x2="2.764" y1="15.239" y2="8.481" gradientUnits="userSpaceOnUse">
            <stop stop-color="#122543"/>
            <stop offset=".45" stop-color="#173C66"/>
            <stop offset="1" stop-color="#5FC0F0"/>
        </linearGradient>
    </defs>
</svg>
